!!!OTL: "Tuerkengefahr" HORCHT HORCHT DER GLOCKENSTIMME
!!!ARE: Europa, Mitteleuropa, Deutschland, Niederrhein
!!!SCT: Z1133
!!!YEM: Copyright 1995, estate of Helmut Schaffrath.
**kern
*ICvox
*Ivox
*M4/4
*k[b-e-]
*g:
{4g
=1
4g
4g
4b-
4b-
=2
2g
4fn}
{4fn
=3
4b-
4b-
4cc
4cc
=4
2dd
4r}
{4cc
=5
4dd
8dd
8dd
4dd
4cc
=6
2dd
4cc}
{4dd
=7
4dd
4dd
4cc
4cc
=8
2b-
4r}
{4b-
=9
4cc
4b-
4cc
4cc
=10
2dd
4dd}
{4b-
=11
4.cc
8cc
4b-
4a
=12
2g
4fn}
{4fn
=13
4cc
4b-
4cc
4cc
=14
2.dd}
{4b-
=15
4cc
4b-
4a
4g
=16
2cc
4dd}
{8b-
8b-
=17
4b-
2a
4f#
=18
2g
4r}
==
!!!AGN: Vaterland und Wehr
!!!ONB: ESAC (Essen Associative Code) Database: ZUCCAL
!!!AMT: simple quadruple
!!!AIN: vox
!!!EED: Helmut Schaffrath
!!!EEV: 1.0
*-
